X:110
T: John McAuliffe's
S: M. Mulvihill
Z: B.Black
R: slide
M: 12/8
L: 1/8
K: D
A | dcd e2 d c2 E EFG | BdB BAG F2 D DFA |
dcd e2 d c2 E EFG | ABA GFE D3-D2 :|
e | f2 d d2 c d2 f agf | e2 A A2 c e2 f gfe |
f2 d d2 c d2 f agf | e2 A ABc d3-d2 :|
